packages/core/src/svgs/efi.svg

<svg width="24" height="24" viewBox="0 0 24 24" fill="none" xmlns="http://www.w3.org/2000/svg">
<g clip-path="url(#clip0_31_9758)">
<path d="M0 0H24V24H0V0Z" fill="#496DDB"/>
<path fill-rule="evenodd" clip-rule="evenodd" d="M18.0171 11.1426H16.4743C16.4743 10.2641 16.2514 9.31693 15.84 8.57122H17.85C18.1071 8.57122 18.5271 8.57979 18.6643 8.36979C19.3457 7.26836 17.6357 6.95551 16.9757 6.93836L16.7528 6.93408C15.2743 6.89979 13.3971 6.85693 11.9657 6.85693C10.6971 6.85693 8.11284 6.89122 6.74141 6.95979C6.18855 6.98979 5.17284 7.30265 5.20712 7.98836C5.22855 8.41693 5.45569 8.57122 5.85855 8.57122H8.14284C7.81712 9.29979 7.45712 10.3541 7.45712 11.1426H5.92712C5.55855 11.1426 5.22855 11.1641 5.20712 11.6098V12.3812C5.22855 12.8226 5.55855 12.8569 5.92712 12.8569H7.46141C7.46141 13.6926 7.56855 14.6569 7.88141 15.4284H5.85855C5.61855 15.4284 5.38712 15.5012 5.23712 15.7284C5.00998 16.0926 5.20712 16.8041 5.65712 16.8812C6.07284 17.0312 6.51427 17.0526 6.96427 17.0655C8.48998 17.0998 10.4657 17.1426 11.9657 17.1426C13.2386 17.1426 15.2786 17.1126 17.1128 17.0784L17.2843 17.0698C17.6786 17.0569 18.1628 17.0355 18.4671 16.8126C18.8443 16.5684 18.9771 15.9212 18.7328 15.5398C18.6128 15.3684 18.4586 15.3898 18.2828 15.4112C18.2228 15.4198 18.1628 15.4284 18.0986 15.4284H16.0543C16.3628 14.7469 16.4743 13.5941 16.4743 12.8569H18.0171C18.3686 12.8569 18.7071 12.8355 18.7286 12.3898V11.6184C18.7114 11.2669 18.3428 11.1426 18.0171 11.1426ZM11.9743 8.57122C10.6371 8.60551 9.50569 9.12408 9.44141 10.7741C9.41569 11.0655 9.41569 11.1426 9.59998 11.1426H14.2714C14.5928 11.1426 14.5928 11.1169 14.5543 10.7741C14.4814 9.08122 13.3114 8.64836 11.9743 8.57122ZM14.3871 12.8569H9.72855C9.40712 12.8569 9.40712 12.8826 9.44569 13.2255C9.51427 14.9741 10.6886 15.3512 12.0043 15.4284C13.3371 15.3941 14.49 14.8755 14.5586 13.2255C14.5843 12.9341 14.5843 12.8698 14.3871 12.8569Z" fill="white"/>
</g>
<defs>
<clipPath id="clip0_31_9758">
<rect width="24" height="24" fill="white"/>
</clipPath>
</defs>
</svg>

<svg xmlns="http://www.w3.org/2000/svg" width="24" height="24" fill="none" viewBox="0 0 24 24"><g clip-path="url(#a)"><path fill="#496DDB" d="M0 0h24v24H0z"/><path fill="#fff" fill-rule="evenodd" d="M18.017 11.143h-1.543c0-.879-.223-1.826-.634-2.572h2.01c.257 0 .677.009.814-.201.682-1.102-1.028-1.414-1.688-1.432l-.223-.004a228 228 0 0 0-4.787-.077c-1.269 0-3.853.034-5.225.103-.552.03-1.568.343-1.534 1.028.022.429.249.583.652.583h2.284c-.326.729-.686 1.783-.686 2.572h-1.53c-.368 0-.698.021-.72.467v.771c.022.442.352.476.72.476h1.534c0 .836.108 1.8.42 2.571H5.86c-.24 0-.472.073-.622.3-.227.365-.03 1.076.42 1.153.416.15.857.172 1.307.184 1.526.035 3.502.078 5.002.078 1.273 0 3.313-.03 5.147-.065l.171-.008c.395-.013.879-.035 1.183-.257.377-.245.51-.892.266-1.273-.12-.172-.274-.15-.45-.129q-.089.015-.184.017h-2.045c.309-.681.42-1.834.42-2.571h1.543c.352 0 .69-.021.712-.467v-.772c-.018-.351-.386-.475-.712-.475M11.974 8.57c-1.337.035-2.468.553-2.533 2.203-.025.292-.025.369.159.369h4.671c.322 0 .322-.026.283-.369-.073-1.693-1.243-2.126-2.58-2.203m2.413 4.286H9.73c-.322 0-.322.026-.283.369.068 1.748 1.243 2.125 2.558 2.202 1.333-.034 2.486-.553 2.555-2.203.025-.29.025-.355-.172-.368" clip-rule="evenodd"/></g><defs><clipPath id="a"><path fill="#fff" d="M0 0h24v24H0z"/></clipPath></defs></svg>
